svgs/sharp-light/dumbbell.svg

<svg xmlns="http://www.w3.org/2000/svg" viewBox="0 0 640 512"><!--! Font Awesome Pro 6.6.0 by @fontawesome - https://fontawesome.com License - https://fontawesome.com/license (Commercial License) Copyright 2024 Fonticons, Inc. --><path d="M224 64l0 176 0 32 0 176-64 0 0-32 0-32 0-256 0-32 0-32 64 0zM128 416l0 32 0 32 32 0 64 0 32 0 0-32 0-176 128 0 0 176 0 32 32 0 64 0 32 0 0-32 0-32 64 0 32 0 0-32 0-112 16 0 16 0 0-32-16 0-16 0 0-112 0-32-32 0-64 0 0-32 0-32-32 0-64 0-32 0 0 32 0 176-128 0 0-176 0-32-32 0-64 0-32 0 0 32 0 32L64 96 32 96l0 32 0 112-16 0L0 240l0 32 16 0 16 0 0 112 0 32 32 0 64 0zM512 128l64 0 0 112 0 32 0 112-64 0 0-256zM480 416l0 32-64 0 0-176 0-32 0-176 64 0 0 32 0 32 0 256 0 32zM128 384l-64 0 0-112 0-32 0-112 64 0 0 256z"/></svg>

<svg xmlns="http://www.w3.org/2000/svg" viewBox="0 0 640 512"><!--! Font Awesome Pro 6.4.2 by @fontawesome - https://fontawesome.com License - https://fontawesome.com/license (Commercial License) Copyright 2023 Fonticons, Inc. --><path d="M224 64V240v32V448H160V416 384 128 96 64h64zM128 416v32 32h32 64 32V448 272H384V448v32h32 64 32V448 416h64 32V384 272h16 16V240H624 608V128 96H576 512V64 32H480 416 384V64 240H256V64 32H224 160 128V64 96H64 32v32V240H16 0v32H16 32V384v32H64h64zM512 128h64V240v32V384H512V128zM480 416v32H416V272 240 64h64V96v32V384v32zM128 384H64V272 240 128h64V384z"/></svg>
